icons/24x24_document_filled.svg

<svg xmlns="http://www.w3.org/2000/svg" width="24" height="24" viewBox="0 0 24 24">
  <path d="M13,2 L13,9 L20,9 L20,20 C20,21.1045695 19.1045695,22 18,22 L6,22 C4.8954305,22 4,21.1045695 4,20 L4,4 C4,2.8954305 4.8954305,2 6,2 L13,2 Z M14,2 L20,8 L14,8 L14,2 Z M10,11 C9.44771525,11 9,11.4477153 9,12 C9,12.5522847 9.44771525,13 10,13 L14,13 C14.5522847,13 15,12.5522847 15,12 C15,11.4477153 14.5522847,11 14,11 L10,11 Z M10,15 C9.44771525,15 9,15.4477153 9,16 C9,16.5522847 9.44771525,17 10,17 L14,17 C14.5522847,17 15,16.5522847 15,16 C15,15.4477153 14.5522847,15 14,15 L10,15 Z"/>
</svg>

<svg width="24" height="24" fill="none" xmlns="http://www.w3.org/2000/svg"><path d="M13 2v7h7v11a2 2 0 0 1-2 2H6a2 2 0 0 1-2-2V4a2 2 0 0 1 2-2h7Zm1 0 6 6h-6V2Zm-4 9a1 1 0 1 0 0 2h4a1 1 0 1 0 0-2h-4Zm0 4a1 1 0 1 0 0 2h4a1 1 0 1 0 0-2h-4Z" fill="#000"/></svg>
